X: 20960
T: Jubilee, The
R: hornpipe
M: 4/4
K: Dmajor
A>G|F>DA,>D F>Ad>f|e2 E2 E2 e>d|c>AE>A ^G>Ac>e|a2 A2 A2 A>G|
F>DA,>D C>DF>A|d>cd>e f>ga>d|c>AA>B c>de>c|d2 D2 D2 (3fg^g|
|:a>fd>A F>DA,>D|B,2 G2 G,2 (3ga^a|b>ge>B G>EB,>D|C2 a2 A,2 (3fg^g|
a>fd>A F>DA,>D|B,>DG>B d>gb>a|(3age c>A G>EC>E|D2 d2 D2(3abc'|
[1 (3d'dd (3c'dd (3bdd (3add|(3gdB (3GDB, G,2 (3bc'^d'|(3e'ee (3^d'ee (3c'ee (3bee|(3aec (3AEC A,2 (3abc'|
d'>dc>c' b>BA>a|g>GF>f e>ED>d|(3cEA (3cAc (3ece (3gec|d2 d'2 d2 C>B,|
(3A,CE A2 (3B,DF B2|(3CEA c2 (3DFA d2|(3cde (3f^ga (3bc'd' (3c'ba|(3ba^g (3a^gf (3^gfe (3dcB|
(3Ace a2 (3Bdf b2|(3cea c'2 (3dfa d'2|(3c'ba (3^gfe (3dcB (3ABc|d2 D2 D2 (3fg^g:|
[2 (3d'dd (3c'dd (3bdd (3add|(3gdB (3GDB, G,2 (3bc'^d'|(3e'ee (3^d'ee (3c'ee (3bee|(3aec (3AEC A,2 (3abc'|
(3d'd'd (3ccc' (3bbB (3AAa|(3ggG (3FFf (3eeE (3DDd|(3cEA (3cAc (3ece (3gec|d2 d'2 D2|

